X: 126
T: Hao fuqi
L: 1/16
M: 2/4
K: G
G2 G A F2 E D [I:setbarnb 1]| 
d2 e gd4 | 
d d2 e g d2 B | 
d G2 BA4 | 
F F E D d d2 e | 
F F A BG4 | 
d A2 d G2 F E | 
G D2 ED4 | 
A G A B2< A2 B | 
d B d eG4 | 
d A2 B G2 F E | 
G D2 ED4 |]

@@@ Tune index: 9000
